X: 1
T: Maggie Lauder
R: march
Z: John Chambers <jc:trillian.mit.edu>
M: C|
L: 1/4
K: A
   E \
| "A"A>B Ac | "F#m"A>B Ac | "Bm"B>c d/c/B/A/ | "E7"GB- Bd \
| "A"cA AE  |      A>B Ac | "E7"e>f ed       |  "A"c   e2 |]
   c \
| "D"d>e df | "A"c>d ce   | "Bm"B>c d/c/B/A/ | "E7"GB- BG \
| "A"AE "F#m"FC | "Bm"DC "E7"B,d | "A"c<e "E7"B>c | "A"A2- A |]
